X: 131822
T: Mary Ellen's HP
S: B.Breathnach:"Ceol Rince na hEireann" IV/210 (gan ainm) 
Z: B.Black
L: 1/8
M: 4/4
R: hornpipe
K: Em
(3DEF|G2 GF GABc|d^cde dB G2|A2 AG ABcd|efge dB G2|
G2 GF GABc|d^cde dB G2|AcBd cBAB|G2 E2 E2 :|
(3def|g2 G2 GB (3def|g2 G2 G2 (3efg|a2 A2 Ac (3efg|\
a2 A2 A3c|
BGBd cBcd|egfa g2 fg|edcB dcBA|G2 E2 E2 :|
